X:1
T:Hot Corn
M:2/4
L:1/8
B:Winner - New American School for the Violin (1883, p. 36)
Z:AK/Fiddler's Companion
K:A
A,c A,c|A,A/c/ e/c/A/c/|B,B B,B|B,G/B/ e/B/G/B/|
A,c A,c|A,A/c/ e/c/A/c/|B,B B,B|G/B/e/B/ A2:|
|:A/c/e/c/ AA|G/B/e/B/ GG|A/c/e/c/ AA|dc B2|
A/c/e/c/ AA|G/B/e/B/ GG|A/c/e/c/ Ad/e/|c/e/B/e/ A2:|]

